src/pos-icons/order-alphabetical-ascending.svg

<svg height="24" viewBox="0 0 24 24" width="24" xmlns="http://www.w3.org/2000/svg"><path d="m12 5h10v2h-10m0 12v-2h10v2m-10-8h10v2h-10m-3 0v2l-3.33 4h3.33v2h-6v-2l3.33-4h-3.33v-2m4-10h-2c-1.1 0-2 .9-2 2v6h2v-2h2v2h2v-6c0-1.1-.89-2-2-2m0 4h-2v-2h2z"/></svg>

<?xml version="1.0" encoding="UTF-8"?><!DOCTYPE svg PUBLIC "-//W3C//DTD SVG 1.1//EN" "http://www.w3.org/Graphics/SVG/1.1/DTD/svg11.dtd"><svg xmlns="http://www.w3.org/2000/svg" xmlns:xlink="http://www.w3.org/1999/xlink" version="1.1" id="mdi-order-alphabetical-ascending" width="24" height="24" viewBox="0 0 24 24"><path d="M12 5H22V7H12M12 19V17H22V19M12 11H22V13H12M9 13V15L5.67 19H9V21H3V19L6.33 15H3V13M7 3H5C3.9 3 3 3.9 3 5V11H5V9H7V11H9V5C9 3.9 8.11 3 7 3M7 7H5V5H7Z" /></svg>
